assets/icons/uEA13-geography.svg

<svg xmlns="http://www.w3.org/2000/svg" width="31.105" height="31.105" viewBox="0 0 31.105 31.105"><path d="M25.112 7.205c-.147-.208-.302-.41-.465-.606-1.643-1.97-4.055-3.27-6.767-3.45V0h-1.562v.627c-6.685.08-12.1 5.538-12.1 12.242 0 6.4 4.947 11.67 11.223 12.2v3.08h-3.29v1.18H9.98v1.77h12.94v-1.77h-2.134v-1.18H17.88v-5.74c2.712-.19 5.124-1.48 6.768-3.45.162-.2.316-.4.463-.61 1.12-1.58 1.78-3.5 1.78-5.58s-.66-4-1.77-5.58zm.98 5.496h-3.156c-.007-1.42-.198-2.76-.528-3.97.77-.29 1.465-.64 2.064-1.04 1.003 1.42 1.603 3.15 1.62 5.02zm-2.086-5.62c-.53.35-1.144.66-1.825.91-.5-1.5-1.24-2.76-2.13-3.61 1.56.53 2.93 1.48 3.96 2.71zm-11.67 5.62c.008-1.32.18-2.58.477-3.71 1.21.37 2.568.59 4.006.62v3.09h-4.49zm4.485.8v2.46c-1.44.04-2.79.26-4.01.62-.25-.95-.41-1.98-.45-3.08h4.47zM12.3 8c-.696-.258-1.324-.57-1.864-.923 1.054-1.25 2.443-2.21 4.03-2.732-.9.862-1.65 2.13-2.164 3.655zm-.223.74c-.33 1.21-.517 2.55-.524 3.962H8.34c.018-1.867.62-3.595 1.622-5.02.612.41 1.322.768 2.107 1.06zm-.51 4.756c.05 1.182.23 2.304.51 3.33-.786.294-1.496.65-2.107 1.06-.89-1.262-1.463-2.763-1.593-4.39h3.19zm.734 4.072c.51 1.525 1.27 2.793 2.17 3.653-1.584-.53-2.972-1.48-4.03-2.74.54-.35 1.17-.66 1.867-.92zm.74-.246c1.14-.337 2.43-.54 3.79-.573v4.88c-1.61-.25-3-1.92-3.79-4.31zm3.79-8.502c-1.36-.033-2.65-.237-3.783-.574.79-2.388 2.174-4.056 3.786-4.306v4.88zm.8 4.677h4.513c-.05 1.1-.21 2.143-.46 3.095-1.223-.38-2.596-.61-4.053-.64v-2.46zm0-.793V9.61c1.455-.034 2.83-.26 4.05-.634.3 1.133.47 2.39.48 3.725h-4.53zm3.83-4.47c-1.15.35-2.45.56-3.83.59V3.93c1.63.226 3.03 1.897 3.83 4.3zM5.76 12.87c0-5.854 4.725-10.623 10.56-10.702v.995c-2.62.246-4.94 1.527-6.54 3.44-.16.197-.314.4-.46.608-1.12 1.58-1.78 3.5-1.78 5.58s.66 4 1.778 5.58c.15.21.304.41.466.61 1.658 1.988 4.1 3.29 6.845 3.455v1.15c-.05 0-.11.007-.16.007-5.91 0-10.71-4.804-10.71-10.71zm11.856 8.764V16.75c1.38.032 2.683.24 3.83.585-.797 2.403-2.203 4.074-3.83 4.3zm2.43-.437c.89-.856 1.628-2.11 2.138-3.614.68.258 1.293.56 1.822.91-1.038 1.23-2.4 2.184-3.96 2.708zm4.427-3.312c-.6-.402-1.29-.754-2.06-1.043.28-1.03.46-2.16.515-3.345h3.145c-.13 1.626-.704 3.127-1.595 4.39z"/></svg>

<?xml version="1.0" encoding="iso-8859-1"?>
<!-- Generator: Adobe Illustrator 16.0.0, SVG Export Plug-In . SVG Version: 6.00 Build 0)  -->
<!DOCTYPE svg PUBLIC "-//W3C//DTD SVG 1.1//EN" "http://www.w3.org/Graphics/SVG/1.1/DTD/svg11.dtd">
<svg version="1.1" id="Capa_1" xmlns="http://www.w3.org/2000/svg" xmlns:xlink="http://www.w3.org/1999/xlink" x="0px" y="0px"
	 width="31.105px" height="31.105px" viewBox="0 0 31.105 31.105" style="enable-background:new 0 0 31.105 31.105;"
	 xml:space="preserve">
<g>
	<path d="M25.112,7.205c-0.147-0.208-0.302-0.41-0.465-0.606c-1.643-1.969-4.055-3.265-6.767-3.45V0h-1.562v0.627
		C9.633,0.708,4.218,6.165,4.218,12.869c0,6.408,4.947,11.679,11.223,12.201v3.08H12.15v1.182H9.981v1.773h12.937v-1.773h-2.134
		V28.15H17.88v-5.735c2.712-0.187,5.124-1.481,6.768-3.45c0.162-0.195,0.316-0.396,0.463-0.605c1.117-1.577,1.777-3.5,1.777-5.576
		C26.888,10.706,26.229,8.782,25.112,7.205z M26.093,12.701h-3.157c-0.007-1.42-0.198-2.766-0.528-3.978
		c0.769-0.289,1.465-0.64,2.064-1.041C25.475,9.105,26.075,10.833,26.093,12.701z M24.006,7.075
		c-0.529,0.346-1.144,0.653-1.825,0.907c-0.509-1.504-1.247-2.758-2.137-3.616C21.603,4.893,22.968,5.841,24.006,7.075z
		 M12.337,12.701c0.007-1.328,0.18-2.584,0.476-3.712c1.21,0.366,2.568,0.587,4.006,0.622v3.09H12.337z M16.821,13.494v2.459
		c-1.44,0.035-2.798,0.255-4.012,0.623c-0.248-0.948-0.408-1.986-0.456-3.082H16.821z M12.294,7.998
		c-0.698-0.258-1.326-0.569-1.866-0.923c1.054-1.251,2.443-2.211,4.032-2.732C13.557,5.205,12.808,6.473,12.294,7.998z
		 M12.069,8.739c-0.329,1.208-0.517,2.547-0.524,3.961H8.341c0.017-1.868,0.618-3.596,1.621-5.019
		C10.574,8.09,11.284,8.447,12.069,8.739z M11.561,13.494c0.05,1.182,0.229,2.304,0.509,3.331c-0.787,0.293-1.497,0.649-2.108,1.059
		c-0.89-1.262-1.462-2.763-1.592-4.389L11.561,13.494L11.561,13.494z M12.293,17.566c0.514,1.525,1.265,2.793,2.167,3.653
		c-1.588-0.521-2.976-1.48-4.031-2.733C10.969,18.135,11.596,17.824,12.293,17.566z M13.031,17.32
		c1.139-0.338,2.424-0.541,3.789-0.574v4.879C15.209,21.376,13.821,19.709,13.031,17.32z M16.821,8.817
		c-1.366-0.033-2.65-0.237-3.789-0.574c0.789-2.388,2.175-4.056,3.787-4.306v4.88H16.821z M17.614,13.494h4.513
		c-0.05,1.1-0.209,2.143-0.459,3.095c-1.224-0.375-2.597-0.601-4.054-0.636V13.494z M17.614,12.701V9.61
		c1.455-0.034,2.828-0.26,4.049-0.634c0.299,1.133,0.473,2.391,0.479,3.725H17.614z M21.442,8.231
		c-1.148,0.345-2.447,0.553-3.83,0.586V3.931C19.241,4.156,20.645,5.827,21.442,8.231z M5.757,12.869
		c0-5.855,4.726-10.624,10.562-10.703v0.995c-2.618,0.242-4.938,1.523-6.534,3.438C9.623,6.794,9.469,6.997,9.322,7.205
		c-1.118,1.578-1.778,3.501-1.778,5.577c0,2.076,0.66,4,1.778,5.577c0.147,0.207,0.302,0.41,0.464,0.605
		c1.658,1.988,4.101,3.289,6.845,3.455v1.15c-0.054,0.004-0.108,0.009-0.164,0.009C10.561,23.579,5.757,18.773,5.757,12.869z
		 M17.614,21.632v-4.885c1.381,0.033,2.683,0.242,3.83,0.586C20.647,19.736,19.241,21.407,17.614,21.632z M20.044,21.195
		c0.89-0.856,1.628-2.109,2.138-3.614c0.681,0.254,1.293,0.56,1.822,0.907C22.966,19.72,21.603,20.671,20.044,21.195z
		 M24.471,17.883c-0.601-0.402-1.296-0.754-2.063-1.043c0.281-1.031,0.461-2.159,0.513-3.346h3.144
		C25.934,15.12,25.362,16.621,24.471,17.883z"/>
</g>
<g>
</g>
<g>
</g>
<g>
</g>
<g>
</g>
<g>
</g>
<g>
</g>
<g>
</g>
<g>
</g>
<g>
</g>
<g>
</g>
<g>
</g>
<g>
</g>
<g>
</g>
<g>
</g>
<g>
</g>
</svg>
